X:1
T:Title
%%score ( 1 2 ) ( 3 4 )
L:1/8
Q:1/4=90
M:4/4
K:C
V:1 treble nm="Midi_20"
V:2 treble 
V:3 bass nm="Midi_20"
V:4 bass 
V:1
"^Gethsemane (77. 77. 77)""^William Henry Monk\n(1823-89)""^James Montgomery\n(1771-1854)""^Go to dark Gethsemane" E2 E2 E2 A2 | %1
 A2 ^G2 A4 || A2 c2 BA B2 | E2 A2 ^G4 || E2 D2 E2 E2 | G2 F2 E4 || E2 c2 B2 A2 | A2 ^G2 A4 || %8
 G2 G2 G2 G2 | FE DF E4 || E2 c2 B2 A2 | A2 ^G2 A4 |] %12
V:2
 A,2 B,2 C2 E2 | E2 E2 C4 || C2 E2 E2 E2 | E2 E2 E4 || B,2 A,2 B,2 C2 | B,C A,B, C4 || %6
 C2 E2 G2 F2 | E3 D C4 || C2 D2 E2 C2 | C2 B,2 C4 || C2 E2 ED CD | E3 D C4 |] %12
V:3
 C2 B,2 A,2 C2 | B,2 B,2 A,4 || A,2 A,2 A,2 ^G,2 | A,2 C2 B,4 || =G,2 A,2 ^G,2 =G,2 | %5
 G,E, F,G, A,4 || %6
"^1. Go to dark Gethsemane, \nYe that feel the tempter's power; \nYour Redeemer's conflict see, \nWatch with Him one bitter hour; \nTurn not from his griefs away, \nLearn of Jesus Christ to pray.\n \n2. Follow to the judgment hall; \nView the Lord of life arraigned; \nO the wormwood and the gall! \nO the pangs His soul sustained! \nShun not suffering, shame, or loss; \nLearn of him to bear the Cross.\n" A,B, C2 D3 C | %7
 B,A, B,2 A,4 || E,2 G,2 G,2 E,2 | %9
"^3. Calvary's mournful mountain climb; \nThere, adoring at his feet, \nMark the miracle of time, \nGod's own sacrifice complete; \n\"It is finished!\" hear him cry; \nLearn of Jesus Christ to die." F,2 F,2 G,4 || %10
 G,2 A,2 ^G,2 A,B, | C2 B,2 A,4 |] %12
V:4
 A,2 ^G,2 A,2 A,,2 | E,2 E,2 A,,4 || A,2 A,,2 E,2 E,D, | C,2 A,,2 E,4 || G,2 F,2 E,2 C,2 | %5
 E,C, D,2 A,,4 || A,,2 A,2 G,2 D,2 | E,2 E,2 A,,4 || C,2 B,,2 C,2 E,2 | D,2 D,2 C,4 || %10
 C,2 A,,2 E,2 F,2 | E,2 E,2 A,,4 |] %12

